X:1
T:Title
%%score 1 2
L:1/8
Q:1/4=100
M:3/4
K:Bb
V:1 treble nm="Grand Piano, Soprano"
V:2 bass nm="Choir Pad, Easter Visits Earth Again"
V:1
 DF [DFc]2 [DFB]2 | [EB]>A [EA]4 | FA [Fc]2 [Fe]2 | [Fd]6 | DF [DFc]2 [DFB]2 | [FB]>A [FA]4 | %6
w: By~Charles~H.~Maskell * * *||||||
 [=Ec]>G [EG]2 [EA]>B | [Ec]6 | [Fdf]2 [Fcf]2 [FBf]2 | [EBe]>[EAe] [Ece]4 | [EAe]>[EGe] [EGe]4 | %11
w: |||||
 [EGe]>[DFd] [DFd]4 | [EG]2 [EG]2 [EA]2 | [FB]>[FB] [FB]4 | [=Ec]>[Ec] [Ec]2 [Ed]2 | [Fc]6 | %16
w: |||||
 [Fdf]2 [Fcf]2 [FBf]2 | [EBe]>[EAe] [EAe]4 | [EAe]>[EGe] [EGe]4 | [EGe]>[DFd] [DFd]4 | %20
w: ||||
 [B,FB]2 [B,FB]2 [B,FA]2 | [B,EG]>[EG] [EGe]2 [EG]2 | [B,DF]>[DF] [Fd]2 [Ec]2 | [DFB]4 [Bdfb]2- | %24
w: ||||
 [Bdfb]6 |] %25
w: |
V:2
 B,,2 [F,B,]2 [F,B,]2 | C,2 [F,A,]2 [F,A,]2 | [F,,F,]2 [F,A,C]2 [F,A,C]2 | B,,2 [F,B,D]2 [F,B,D]2 | %4
 B,,2 [F,B,]2 [F,B,]2 | C,2 [F,A,]2 [F,A,]2 | C,2 [G,B,]2 [G,B,]2 | [F,,F,]2 [F,A,]2 [F,A,CE]2 | %8
 B,,F, B,D B,F, | C,F, A,C A,F, | F,,C, F,A, F,C, | B,,F, B,D B,F, | E,G, B,E B,G, | %13
 D,F, B,D B,F, | C,G, B,C B,G, | F,G, F,E, D,C, | B,,F, B,D B,F, | C,F, A,C A,F, | %18
 F,,E, F,A, F,C, | B,,F, B,D B,F, | [D,,D,]2 [D,F,]2 [D,F,]2 | [E,,E,]2 [E,B,]2 [E,B,]2 | %22
 [F,,F,]2 [F,B,]2 [F,A,]2 | [B,,B,]2 [F,,F,]2 [B,,,B,,]2- | [B,,,B,,]6 |] %25

